X: 10108
T: Difyrrwch Gwyr Dyfi
R: jig
M: 6/8
K: Gmajor
E/F/|GAB BcB|cAA A2 G/F/|GAB cAB|GEE E2 E/F/|
GAB BcB|cAA A2 G/F/|GAB cAB|GEE E2 e/f/|
|:g2 g f2 f|ege d2 d|ede gfe|dBB B2 B/c/|
ded dcB|cAA A2 G/F/|GAB cAB|GEE E2 e/f/:|

